projects/packages/my-jetpack/_inc/components/connection-screen/github.svg

<svg fill="none" height="20" viewBox="0 0 20 20" width="20" xmlns="http://www.w3.org/2000/svg"><path clip-rule="evenodd" d="m10.0083 0c-5.53435 0-10.0083 4.58332-10.0083 10.2535 0 4.5325 2.86662 8.3691 6.84337 9.727.4972.1021.67932-.2206.67932-.492 0-.2377-.01639-1.0525-.01639-1.9014-2.78406.6112-3.36381-1.2223-3.36381-1.2223-.44742-1.1884-1.11035-1.4938-1.11035-1.4938-.91122-.6282.06638-.6282.06638-.6282 1.01078.0679 1.54117 1.0526 1.54117 1.0526.89462 1.5616 2.33623 1.1204 2.91619.8488.08276-.6622.34805-1.1205.62974-1.3751-2.22048-.2376-4.55671-1.1204-4.55671-5.05893 0-1.12041.39742-2.03708 1.02717-2.74999-.09936-.25458-.44742-1.30729.09955-2.71624 0 0 .84506-.27167 2.75046 1.0525.81578-.22444 1.65707-.33863 2.50221-.33958.845 0 1.7065.11895 2.5019.33958 1.9057-1.32417 2.7507-1.0525 2.7507-1.0525.547 1.40895.1987 2.46166.0993 2.71624.6464.71291 1.0274 1.62958 1.0274 2.74999 0 3.93853-2.3362 4.80423-4.5733 5.05893.3646.3225.6793.9335.6793 1.9013 0 1.375-.0164 2.4785-.0164 2.8179 0 .2716.1824.5943.6794.4925 3.9768-1.3584 6.8434-5.1948 6.8434-9.7273.0163-5.67018-4.474-10.2535-9.9917-10.2535z" fill="#24292f" fill-rule="evenodd"/></svg>

<svg width="20" height="20" viewBox="0 0 20 20" fill="none" xmlns="http://www.w3.org/2000/svg">
<path fill-rule="evenodd" clip-rule="evenodd" d="M10.0083 0C4.47395 0 0 4.58332 0 10.2535C0 14.786 2.86662 18.6226 6.84337 19.9805C7.34057 20.0826 7.52269 19.7599 7.52269 19.4885C7.52269 19.2508 7.5063 18.436 7.5063 17.5871C4.72224 18.1983 4.14249 16.3648 4.14249 16.3648C3.69507 15.1764 3.03214 14.871 3.03214 14.871C2.12092 14.2428 3.09852 14.2428 3.09852 14.2428C4.1093 14.3107 4.63969 15.2954 4.63969 15.2954C5.53431 16.857 6.97592 16.4158 7.55588 16.1442C7.63864 15.482 7.90393 15.0237 8.18562 14.7691C5.96514 14.5315 3.62891 13.6487 3.62891 9.71017C3.62891 8.58976 4.02633 7.67309 4.65608 6.96018C4.55672 6.7056 4.20866 5.65289 4.75563 4.24394C4.75563 4.24394 5.60069 3.97227 7.50609 5.29644C8.32187 5.072 9.16316 4.95781 10.0083 4.95686C10.8533 4.95686 11.7148 5.07581 12.5102 5.29644C14.4159 3.97227 15.2609 4.24394 15.2609 4.24394C15.8079 5.65289 15.4596 6.7056 15.3602 6.96018C16.0066 7.67309 16.3876 8.58976 16.3876 9.71017C16.3876 13.6487 14.0514 14.5144 11.8143 14.7691C12.1789 15.0916 12.4936 15.7026 12.4936 16.6704C12.4936 18.0454 12.4772 19.1489 12.4772 19.4883C12.4772 19.7599 12.6596 20.0826 13.1566 19.9808C17.1334 18.6224 20 14.786 20 10.2535C20.0163 4.58332 15.526 0 10.0083 0Z" fill="#24292F"/>
</svg>
